actions/22x22-light/stroke-cap-butt.svg

<svg xmlns="http://www.w3.org/2000/svg" viewBox="0 0 22 22">
 <defs id="defs3051">
   <style type="text/css" id="current-color-scheme">
     .ColorScheme-Text {
       color:#4d4d4d;
     }
     </style>
 </defs>
   <path
      style="fill:currentColor;fill-opacity:1;stroke:none"
      d="m8.8671875 3v1.0664062h-2.1347656-1.0664063v1.0664063 13.8671875h1.0664063 3.2011719v-1.066406-13.8671878h2.1328122v14.9335938h1.066406 3.201172v-1.066406-13.8671878h-3.201172v-1.0664062z"
      class="ColorScheme-Text" />
</svg>

<svg xmlns="http://www.w3.org/2000/svg" viewBox="0 0 22 22">
  <defs id="defs3051">
    <style type="text/css" id="current-color-scheme">
      .ColorScheme-Text {
        color:#4d4d4d
      }
      </style>
  </defs>
 <path 
     style="fill:currentColor;fill-opacity:1;stroke:none"      
	 class="ColorScheme-Text"
     d="M 8.8671875 3 L 8.8671875 4.0664062 L 6.7324219 4.0664062 L 5.6660156 4.0664062 L 5.6660156 5.1328125 L 5.6660156 19 L 6.7324219 19 L 9.9335938 19 L 9.9335938 17.933594 L 9.9335938 4.0664062 L 12.066406 4.0664062 L 12.066406 19 L 13.132812 19 L 16.333984 19 L 16.333984 17.933594 L 16.333984 4.0664062 L 13.132812 4.0664062 L 13.132812 3 L 8.8671875 3 z "
     />
</svg>
